X: 6133
T: Captain Lachlan MacPhail Of Tiree
R: reel
M: 4/4
K: Dmajor
{g}A>{d}A {e}A>{d}c {gef}e2 {A}e2|{g}f>a {g}a>e {g}f>e{A}e>c|{g}A>{d}A {e}A>{d}c {gef}e2 {A}e>f|{g}e>c {g}B/{d}A3/2 {g}B>{d}B{e}B>{d}c|
{g}A>{d}A {e}A>{d}c {gef}e2 {A}e2|{g}f>a {g}a>e {g}f>e{A}e>c|{g}A>{d}A {e}A>B {g}c<e{g}f>c|{g}B>{d}A {e}A>{d}B {AGAG}A3 e||
{ag}a2 e<a f>e{g}c/{d}A3/2|{g}c>{d}A {e}A>{d}c {g}c<e{A}e>f|{ag}a2 e<a f>e{g}c/{d}A3/2|{g}A>f {g}e>c {g}B>{d}B{e}B>e|
{ag}a2 e<a f>e{g}c/{d}A3/2|{g}c>{d}A {e}A>{d}c {g}c<e{A}e>f|{g}A>{d}A {e}A>B {g}c<e{g}f>c|{g}B>{d}A {e}A>{d}B {AGAG}A2 a2||
c>{d}c {e}c>B {g}A>{d}A{e}A>{d}c|{gef}e2 {A}e>f a>e{g}f>e|c>{d}c {e}c>B {g}A>{d}AA>f|{g}e>c {g}B/{d}A3/2 {g}B>{d}B{e}B>a|
c>{d}c {e}c>B {g}A>{d}A{e}A>{d}c|{gef}e2 {A}e>f a>e{g}f>e|{g}A>{d}A {e}A>B {g}c<e{g}f>c|{g}B>{d}A {e}A>{d}B {AGAG}A3 e||
a>{g}a {g}a>e {g}f>e{A}e>f|{g}c/{d}A3/2 {d}c<e {g}f>a{g}a>e|a>{g}a {g}a>e {g}f>e{A}e>f|{g}e>c {g}B/{d}A3/2 {g}B>{d}B{e}B>e|
a>{g}a {g}a>e {g}f>e{A}e>f|{g}c/{d}A3/2 {d}c<e {g}f>a{g}a>c|{g}A>{d}A {e}A>B {g}c<e{g}f>c|{g}B>{d}A {e}A>{d}B {AGAG}A4||

